!!!COM: Haydn, Franz Joseph
!!!OTL: String Quartet in E-flat Major
!!!OPS: Opus 71
!!!ONM: No. 3
!!!OMD: Menuetto
!!!OMV: 3
!!!SCT: H III:71
!!!SCA: Thematisch-bibliographisches Werkevererzeichnis (A. van Hoboken)
!!!YOR: Trautwein Edition
!!!ENC: Frances Bennion
!!!CDT: 1732/3/31/-1809/5/31/
!!!CNT: Oesterreich
!!!YEC: Copyright (c) 1994, 2000 Center for Computer Assisted Research in the Humanities
!!!YEM: Rights to all derivative editions reserved.
!!!YEM: Refer to licensing agreement for further details.
!!!YEN: United States of America
**kern	**kern	**kern	**kern
*k[b-e-a-]	*k[b-e-a-]	*k[b-e-a-]	*k[b-e-a-]
*E-:	*E-:	*E-:	*E-:
*clefF4	*clefC3	*clefF	*clefF
*M3/4	*M3/4	*M3/4	*M3/4
2r	2r	2r	2r
4r	4r	4r	8b-
.	.	.	8a
=1	=1	=1	=1
2.r	2.r	2.r	8cc
.	.	.	8b-
.	.	.	8a-
.	.	.	8g
.	.	.	8f
.	.	.	8e-
=2	=2	=2	=2
4BB-	4F	4A-	4d
4BB-	4F	4A-	4d
4r	4r	4r	8b-
.	.	.	8d
=3	=3	=3	=3
4C	4E-	4G	4e-
4C	4E-	4G	4e-
4FF	4c	8A	8ee-
.	.	8e-	8a
=4	=4	=4	=4
4BB-	4B-	4d	4b-
4BB-	4B-	4d	4b-
4r	8B-	4r	4r
.	8A	.	.
=5	=5	=5	=5
2.r	8c	4r	4r
.	8B-	.	.
.	8A-	4f	4dd
.	8G	.	.
.	8F	4g	4ee-
.	8E-	.	.
=6	=6	=6	=6
2r	4D	4a-	4ff
.	4D	4a-	4ff
8B-	4r	4r	4r
8A	.	.	.
=7	=7	=7	=7
8c	4r	4r	4r
8B-	.	.	.
8A-	4b-	4dd	4ff
8G	.	.	.
8F	4b-	4ee-	4gg
8E-	.	.	.
=8	=8	=8	=8
2.D	2.b	4ff	4aa-
.	.	4ff	4aa-
.	.	4r	8ff
.	.	.	8dd
=9	=9	=9	=9
2.E-	2.cc	4ee-	4gg
.	.	4ee-	4gg
.	.	4r	8ee-
.	.	.	8cc
=10	=10	=10	=10
2.E	2g	2.dd-	4bb-
.	.	.	4bb-
.	4b-	.	8gg
.	.	.	8ee
=11	=11	=11	=11
2F	4b-	4dd	4ff
.	4r	8f	8dd
.	.	8d	8b-
4FF	8A	8e-	8cc
.	8e-	8c	8a
=12	=12	=12	=12
4BB-	4d	4d	4b-
4B-	2r	4r	4r
4r	.	8d	8b-
.	.	8c	8a
=13	=13	=13	=13
2.r	2.r	8e-	8cc
.	.	8d	8b-
.	.	8f	8dd
.	.	8e-	8cc
.	.	8g	8ee-
.	.	8f	8dd
=14	=14	=14	=14
8B-	4d	4a-	4ff
8A	.	.	.
8c	4d	4a-	4ff
8B-	.	.	.
4r	4f	4a-	8dd
.	.	.	8b-
=15	=15	=15	=15
8B-	4e-	4g	4ee-
8A	.	.	.
8c	4e-	4g	4ee-
8B-	.	.	.
4r	4e-	4g-	8cc
.	.	.	8a
=16	=16	=16	=16
8B-	4d	4f	4b-
8A	.	.	.
8c	4d	4f	4b-
8B-	.	.	.
4r	8e-	8g-	8.b-
.	8d	8f	.
.	.	.	16b-
=17	=17	=17	=17
2.r	8f	8a-	2b-
.	8e-	8g	.
.	8d	8f	.
.	8c	8e-	.
.	8B-	8d	8cc
.	8A-	8c	8dd
=18	=18	=18	=18
2r	4G	4B-	4ee-
.	4G	4B-	4ee-
8A-	8c	8.e-	8.ee-
8G	8B-	.	.
.	.	16e-	16ee-
=19	=19	=19	=19
8B-	8d-	2e-	2ee-
8A-	8c	.	.
8G	8B-	.	.
8F	8A-	.	.
8E-	8G	8f	8ff
8D-	8F	8g	8gg
=20	=20	=20	=20
4C	4E-	4a-	4aa-
4C	4E-	4a-	4aa-
4r	4r	8a-	8cc
.	.	8g	8b-
=21	=21	=21	=21
4E	2.r	8b-	8dd-
.	.	8a-	8cc
4F	.	8g	8b-
.	.	8f	8a-
4D	.	8a-	8cc
.	.	8g	8b-
=22	=22	=22	=22
4E-	4r	8f	8a-
.	.	8e-	8g
2r	8e-	2r	8gg
.	8d	.	8ff#
.	8e-	.	8gg
.	8B	.	8dd
=23	=23	=23	=23
2.r	8c	2.r	8ee-
.	8G	.	8b
.	8A-	.	8cc
.	8E	.	8g
.	8F	.	8a-
.	8A-	.	8cc
=24	=24	=24	=24
2.BB-	2B-	2G	2e-
.	4D	4A-	4f
=25	=25	=25	=25
8EE-	4E-	4G	4e-
8DD	.	.	.
8FF	2r	2r	4r
8EE-	.	.	.
8GG	.	.	8b-
8FF#	.	.	8a
=26	=26	=26	=26
2.GG	4r	4r	8cc
.	.	.	8b-
.	4E-	4e- 4B-	8a-
.	.	.	8g
.	4E-	4e- 4B-	8f
.	.	.	8e-
=27	=27	=27	=27
2.AA-	4r	4r	4d
.	4F	4B- 4d	4d
.	4F	4B- 4d	8b-
.	.	.	8a
=28	=28	=28	=28
2.GG	4r	4r	8cc
.	.	.	8b-
.	4E-	4e- 4B-	8a-
.	.	.	8g
.	4E-	4B- 4e-	8f
.	.	.	8e-
=29	=29	=29	=29
2.AA-	4r	4r	4d
.	4F	4B- 4d	4d
.	4F	4d 4B-	8b-
.	.	.	8a
=30	=30	=30	=30
[2.GG	4r	4r	8cc
.	.	.	8b-
.	4E-	4e- 4B-	8a-
.	.	.	8g
.	4E-	4B- 4e-	8f
.	.	.	8e-
=31	=31	=31	=31
2.GG]	2.E-	2.B-	8d-
.	.	.	8c
.	.	.	8d-
.	.	.	8b-
.	.	.	8g
.	.	.	8d-
=32	=32	=32	=32
2.AA-	2E-	2.c	8c
.	.	.	8e
.	.	.	8f
.	.	.	8cc
.	4F	.	8a-
.	.	.	8f
=33	=33	=33	=33
4BB-	2G	2B-	2e-
4BB-	.	.	.
4BB-	4D	4A-	4f
=34	=34	=34	=34
8E-	4E-	4G	4e-
8D	.	.	.
8F	2r	4r	2r
8E-	.	.	.
8G	.	8b-	.
8F#	.	8a	.
=35	=35	=35	=35
2.G	4r	8cc	2r
.	.	8b-	.
.	4B-	8a-	.
.	.	8g	.
.	4e-	8f	8dd
.	.	8e-	8ee-
=36	=36	=36	=36
2.A-	4B-	4d	8gg
.	.	.	8ff
.	4f	4r	8ee-
.	.	.	8dd
.	4d	8a	8cc
.	.	8b-	8b-
=37	=37	=37	=37
2.G	4r	8cc	4ee-
.	.	8b-	.
.	4B-	8a-	4r
.	.	8g	.
.	4e-	8f	8dd
.	.	8e-	8ee-
=38	=38	=38	=38
2.A-	4B-	4d	8ee
.	.	.	8ff
.	4f	4r	8gg
.	.	.	8aa-
.	4d	8a	8ff
.	.	8b-	8dd
=39	=39	=39	=39
2.G	4r	8cc	4ee-
.	.	8b-	.
.	4B-	8a-	4r
.	.	8g	.
.	4e-	8f	8dd
.	.	8e-	8ee-
=40	=40	=40	=40
2.GG	2.B-	2.d-	8ff
.	.	.	8ee-
.	.	.	8ff
.	.	.	8gg
.	.	.	8aa-
.	.	.	8bb-
=41	=41	=41	=41
2.AA-	4A-	8c	8ccc
.	.	8d	8bb
.	2r	8e-	8ccc
.	.	8e	8gg
.	.	8f	8aa-
.	.	8a-	8ff
=42	=42	=42	=42
2.BB-	4r	2g	2ee-
.	4B-	.	.
.	4A-	4d	4ff
=43	=43	=43	=43
4E-	4G	4e-	4ee-
2r	2r	2r	4r
.	.	.	8b-
.	.	.	8a
=44	=44	=44	=44
2.r	2r	2r	8cc
.	.	.	8b-
.	.	.	8a-
.	.	.	8g
.	[4A-	[4c-	8f
.	.	.	8e-
=45	=45	=45	=45
2.BB-	4A-]	4c-]	4d
.	4G	4B-	4d
.	4F	4A-	8b-
.	.	.	8d
=46	=46	=46	=46
4E-	4G	4G	4e-
4r	4B-	4G	4e-
4BB-	4F	4A-	8b-
.	.	.	8d
=47	=47	=47	=47
4EE-	4G	4G	4e-
4r	2r	2r	2r
4E-	.	.	.
=48	=48	=48	=48
2BB-	2.r	2.r	2.r
8AA-	.	.	.
16GG	.	.	.
16AA-	.	.	.
=49	=49	=49	=49
4GG	2r	2r	2.r
4BB-	.	.	.
4EE-	4E-	4e-	.
=50	=50	=50	=50
2.DD-	4F-	4f-	2.r
.	4E-	4e-	.
.	4G	4g	.
=51	=51	=51	=51
4CC	4A-	4a-	2.r
4r	4c	4cc	.
4FF	4F	4f	.
=52	=52	=52	=52
2.EE-	4G-	4g-	2.r
.	4F	4f	.
.	4A	4a	.
=53	=53	=53	=53
4DD	4B-	4b-	2r
2r	4d	4dd	.
.	4r	4b-	4bb-
=54	=54	=54	=54
2.r	8B-	2dd	2ff
.	8d	.	.
.	8e-	.	.
.	8f	.	.
.	8g	8cc	8ee-
.	8a	16b-	16dd
.	.	16cc	16ee-
=55	=55	=55	=55
2.r	4b-	4b-	4dd
.	4r	4dd	4ff
.	4B-	4d	4b-
=56	=56	=56	=56
2r	4c-	4e-	2.a-
.	4B-	4d	.
8BB-	4d	4f	.
16AA	.	.	.
16BB-	.	.	.
=57	=57	=57	=57
2.EE-	4e-	2g	4g
.	4B-	.	4ee-
.	4g	8f	8dd
.	.	8e-	8cc
=58	=58	=58	=58
2.FF	2f	2d	2b-
.	4A	4e-	4cc
=59	=59	=59	=59
4BB-	8B-	8d	4b-
.	8d	8f	.
2r	8B-	8d	4r
.	8d	8f	.
.	8B-	8d	4bb-
.	8d	8f	.
=60	=60	=60	=60
4BB-	8B-	8d	4ff
.	8d	8f	.
2r	8B-	8d	4r
.	8d	8f	.
.	8B-	8d	4ddd
.	8d	8f	.
=61	=61	=61	=61
4BB-	8f	8d	4bb-
.	8d	8f	.
2r	8B-	8d	4r
.	8d	8f	.
.	8B-	8d	4fff
.	8d	8f	.
=62	=62	=62	=62
4BB-	8B-	8b-	4ddd
.	8d	8f	.
4BB-	8B-	8d	4bbb-
.	8d	8f	.
4BB-	8B-	8d	4bbb-
.	8d	8f	.
=63	=63	=63	=63
4BB-	4B-	4d	4bbb-
2r	2r	2r	4r
.	.	.	4b-
=64	=64	=64	=64
[2.BB-	2F	2d	2f
.	4G-	4A	8e-
.	.	.	16d
.	.	.	16e-
=65	=65	=65	=65
2.BB-_	2F	2B-	4d
.	.	.	4f
.	4G-	4A	8e-
.	.	.	16d
.	.	.	16e-
=66	=66	=66	=66
2.BB-_	2F	2.B-	4d
.	.	.	4f
.	4G	.	8e-
.	.	.	16d
.	.	.	16e-
=67	=67	=67	=67
2.BB-_	2A-	2c	4f
.	.	.	4a-
.	4E	4d-	8g
.	.	.	16f
.	.	.	16g
=68	=68	=68	=68
2.BB-_	2F	4c	4a-
.	.	4d	8cc
.	.	.	8b-
.	4E-	4e-	8a-
.	.	.	8g
=69	=69	=69	=69
4BB-]	2B-	4e-	4g
4B-	.	4d	4f
4r	4r	4ee-	4r
=70	=70	=70	=70
8EE-	2g	2b-	2.r
8GG	.	.	.
8AA-	.	.	.
8BB-	.	.	.
8C	8f	8a-	.
8D	16e-	16g	.
.	16f	16a-	.
=71	=71	=71	=71
4E-	4e-	4g	2r
2r	4g	4b-	.
.	4r	4r	4eee-
=72	=72	=72	=72
2.r	8e-	2gg	2bb-
.	8g	.	.
.	8a-	.	.
.	8b-	.	.
.	8cc	8ff	8aa-
.	8dd	16ee-	16gg
.	.	16ff	16aa-
=73	=73	=73	=73
2.r	4ee-	4ee-	4gg
.	4r	4gg	4bb-
.	4e-	4g	4ee-
=74	=74	=74	=74
2r	4f-	4a-	2.dd-
.	4e-	4g	.
8E-	4G	[4b-	.
16D	.	.	.
16E-	.	.	.
=75	=75	=75	=75
4AA-	4A-	4b-]	4cc
4r	4c	4a-	4ee-
8AA-	4e-	[4a-	4cc
16GG	.	.	.
16AA-	.	.	.
=76	=76	=76	=76
4E-	2e-	4a-]	4b-
4r	.	4g	4ee-
8E-	4r	4g	4b-
16D	.	.	.
16E-	.	.	.
=77	=77	=77	=77
4B-	4r	2f	2a-
4B	4d	.	.
4c	4e-	4e-	4g
=78	=78	=78	=78
2A-	2A-	2c	8f
.	.	.	16e
.	.	.	16f
.	.	.	4a-
4B-	4B-	8B-	4d
.	.	8A-	.
=79	=79	=79	=79
4E-	8E-	8G	4e-
.	8G	8B-	.
2r	8E-	8G	4r
.	8G	8B-	.
.	8E-	8G	4ee-
.	8G	8B-	.
=80	=80	=80	=80
4E-	8E-	8G	4b-
.	8G	8B-	.
2r	8E-	8G	4r
.	8G	8B-	.
.	8E-	8G	4gg
.	8G	8B-	.
=81	=81	=81	=81
4E-	8E-	8G	4ee-
.	8G	8B-	.
2r	8E-	8G	4r
.	8G	8B-	.
.	8E-	8G	4bb-
.	8G	8B-	.
=82	=82	=82	=82
4EE-	8E-	8G	4eee-
.	8G	8B-	.
4EE-	8E-	8G	4bb-
.	8G	8B-	.
4EE-	8E-	8G	4ggg
.	8G	8B-	.
=83	=83	=83	=83
4EE-	4E-	4G	4eee-
2r	2r	2r	2r
==	==	==	==
*-	*-	*-	*-
!!!RWG1: This file contains only pitch and duration data.
!!!RWG2: Transposing instruments are not transposed.
!!!RWG3: Spines may have incompatible meters.
!!!RWG4: Durations of rests and tied notes may be interpreted.
!!!RWG: Key is interpreted using the Humdrum key tool.
!!!GTL: 6 Quartetti ("Apponyi")
!!!AFT: stage1
!!!END: 1997/04/15
!!!KEY: 392038526
!!!EMD: Converted from MuseData to Humdrum Dec 16, 2000, by Andreas Kornstaedt using muse2kern.
!!!EMD: Manual editing by Craig Sapp, Nov 2001
